projects/fh/img/icons/sort.svg

<svg width="15" height="26" viewBox="0 0 15 26" fill="none" xmlns="http://www.w3.org/2000/svg">
<path d="M6.63398 1.5C7.01888 0.833333 7.98113 0.833333 8.36603 1.5L13.1292 9.75C13.5141 10.4167 13.0329 11.25 12.2631 11.25L2.73686 11.25C1.96706 11.25 1.48593 10.4167 1.87083 9.75L6.63398 1.5Z" fill="#42474D"/>
<path d="M8.36602 24.5C7.98112 25.1667 7.01887 25.1667 6.63397 24.5L1.87083 16.25C1.48593 15.5833 1.96706 14.75 2.73686 14.75L12.2631 14.75C13.0329 14.75 13.5141 15.5833 13.1292 16.25L8.36602 24.5Z" fill="#42474D"/>
</svg>

<svg width="15" height="26" fill="none" xmlns="http://www.w3.org/2000/svg"><path d="M6.634 1.5a1 1 0 011.732 0l4.763 8.25a1 1 0 01-.866 1.5H2.737a1 1 0 01-.866-1.5L6.634 1.5zm1.732 23a1 1 0 01-1.732 0l-4.763-8.25a1 1 0 01.866-1.5h9.526a1 1 0 01.866 1.5L8.366 24.5z" fill="#42474D"/></svg>
